assets/icons/document/new-filled.svg

<?xml version="1.0" encoding="UTF-8" standalone="no"?>
<svg
   viewBox="0 0 24 24"
   height="24"
   id="svg7384"
   version="1.1"
   width="24"
   sodipodi:docname="new-filled.svg"
   inkscape:version="1.2 (1:1.2.1+202207142221+cd75a1ee6d)"
   xmlns:inkscape="http://www.inkscape.org/namespaces/inkscape"
   xmlns:sodipodi="http://sodipodi.sourceforge.net/DTD/sodipodi-0.dtd"
   xmlns="http://www.w3.org/2000/svg"
   xmlns:svg="http://www.w3.org/2000/svg"
   xmlns:rdf="http://www.w3.org/1999/02/22-rdf-syntax-ns#"
   xmlns:cc="http://creativecommons.org/ns#"
   xmlns:dc="http://purl.org/dc/elements/1.1/">
  <sodipodi:namedview
     id="namedview21"
     pagecolor="#ffffff"
     bordercolor="#666666"
     borderopacity="1.0"
     inkscape:pageshadow="2"
     inkscape:pageopacity="0.0"
     inkscape:pagecheckerboard="0"
     showgrid="true"
     width="24px"
     inkscape:zoom="27.999993"
     inkscape:cx="7.6428591"
     inkscape:cy="13.982146"
     inkscape:window-width="1920"
     inkscape:window-height="1016"
     inkscape:window-x="0"
     inkscape:window-y="0"
     inkscape:window-maximized="1"
     inkscape:current-layer="svg7384"
     inkscape:showpageshadow="2"
     inkscape:deskcolor="#d1d1d1">
    <inkscape:grid
       type="xygrid"
       id="grid837"
       dotted="false" />
    <inkscape:grid
       type="xygrid"
       id="grid839"
       dotted="true"
       spacingx="0.5"
       spacingy="0.5"
       empspacing="10" />
  </sodipodi:namedview>
  <metadata
     id="metadata20854">
    <rdf:RDF>
      <cc:Work
         rdf:about="">
        <dc:format>image/svg+xml</dc:format>
        <dc:type
           rdf:resource="http://purl.org/dc/dcmitype/StillImage" />
      </cc:Work>
    </rdf:RDF>
  </metadata>
  <defs
     id="defs7386">
    <linearGradient
       id="linearGradient5606"
       inkscape:swatch="solid">
      <stop
         id="stop5608"
         offset="0"
         style="stop-color:#000000;stop-opacity:1;" />
    </linearGradient>
    <linearGradient
       id="linearGradient4526"
       inkscape:swatch="solid">
      <stop
         id="stop4528"
         offset="0"
         style="stop-color:#ffffff;stop-opacity:1;" />
    </linearGradient>
    <linearGradient
       id="linearGradient3600-4"
       inkscape:swatch="gradient">
      <stop
         id="stop3602-7"
         offset="0"
         style="stop-color:#f4f4f4;stop-opacity:1" />
      <stop
         id="stop3604-6"
         offset="1"
         style="stop-color:#dbdbdb;stop-opacity:1" />
    </linearGradient>
  </defs>
  <g
     id="layer9"
     label="status"
     style="display:inline"
     transform="translate(-613.0002,327)" />
  <g
     id="layer4"
     style="display:inline"
     transform="translate(-372,-39.999996)" />
  <g
     id="g1812"
     style="display:inline"
     transform="translate(-372,-39.999996)" />
  <g
     id="g6217"
     style="display:inline"
     transform="translate(-372,-39.999996)" />
  <g
     id="layer3"
     style="display:inline"
     transform="translate(-372,-39.999996)" />
  <g
     id="g1833"
     style="display:inline"
     transform="translate(-372,-39.999996)" />
  <g
     id="layer1"
     style="display:inline"
     transform="translate(-372,-39.999996)" />
  <path
     id="path874"
     style="color:#000000;fill:#808080;fill-opacity:1"
     d="M 6.4550781 2.0019531 C 5.4864992 2.0109331 4.7372579 2.0752235 4.1171875 2.4472656 C 3.7038072 2.6952939 3.3972494 3.1031741 3.2285156 3.609375 C 3.0597821 4.1155759 3 4.7241777 3 5.5019531 L 3 18.501953 C 3 19.279728 3.0585582 19.893264 3.25 20.410156 C 3.4414417 20.92705 3.8029643 21.337028 4.2773438 21.574219 C 5.2261025 22.048597 6.500006 22.001953 8.5 22.001953 L 14 22.001953 L 14 16.001953 L 7 16.001953 L 7 15.001953 L 14 15.001953 L 14 14.001953 L 7 14.001953 L 7 13.001953 L 16 13.001953 L 16 14 L 20 14 L 20 8.0019531 L 15 8.0019531 L 14 8.0019531 L 14 2.0019531 L 7.5 2.0019531 C 7.1250011 2.0019531 6.7779378 1.9989531 6.4550781 2.0019531 z M 15 2.2949219 L 15 7.0019531 L 19.707031 7.0019531 L 15 2.2949219 z M 7 11.001953 L 16 11.001953 L 16 12.001953 L 7 12.001953 L 7 11.001953 z M 7 17.001953 L 12 17.001953 L 12 18.001953 L 7 18.001953 L 7 17.001953 z " />
  <g
     id="layer9-3"
     label="status"
     style="display:inline"
     transform="translate(-613.0002,327.00133)" />
  <g
     id="layer4-6"
     style="display:inline"
     transform="translate(-372,-39.998663)" />
  <g
     id="g1812-7"
     style="display:inline"
     transform="translate(-372,-39.998663)" />
  <g
     id="g6217-5"
     style="display:inline"
     transform="translate(-372,-39.998663)" />
  <g
     id="layer3-3"
     style="display:inline"
     transform="translate(-372,-39.998663)" />
  <g
     id="g1833-5"
     style="display:inline"
     transform="translate(-372,-39.998663)" />
  <g
     id="layer1-6"
     style="display:inline"
     transform="translate(-372,-39.998663)" />
  <path
     id="rect961"
     style="fill:#808080;fill-opacity:1;fill-rule:evenodd;stroke-linecap:round"
     d="m 18,15 v 3 h -3 v 1 h 3 v 3 h 1 v -3 h 3 v -1 h -3 v -3 z" />
</svg>

<svg height="24" width="24" xmlns="http://www.w3.org/2000/svg"><path style="color:#000;fill:gray;fill-opacity:1" d="M6.455 2.002c-.969.009-1.718.073-2.338.445-.413.248-.72.656-.888 1.162C3.059 4.116 3 4.724 3 5.502v13c0 .778.059 1.391.25 1.908.191.517.553.927 1.027 1.164.95.475 2.223.428 4.223.428H14v-6H7v-1h7v-1H7v-1h9V14h4V8.002h-6v-6H7.5c-.375 0-.722-.003-1.045 0zM15 2.295v4.707h4.707L15 2.295zm-8 8.707h9v1H7v-1zm0 6h5v1H7v-1z"/><path style="fill:gray;fill-opacity:1;stroke-linecap:round" d="M18 15v3h-3v1h3v3h1v-3h3v-1h-3v-3z"/></svg>
